wilib/img/svg/pergaminho_bottom.svg

<svg xmlns="http://www.w3.org/2000/svg" xmlns:xlink="http://www.w3.org/1999/xlink" preserveAspectRatio="none" width="564" height="81" viewBox="0 0 564 81"><defs><path fill="#FFF" d="M584.3 262v-.8l-.5-39h-482v39q-.15 16.55-11.75 28.3-11.5 11.35-27.4 11.8H544.2q16.5 0 28.3-11.8 11.45-11.45 11.8-27.5z" id="a"/><g id="b"><path fill="#FFF" d="M101.8 261.2v-40.05H62.2q7.95.15 13.75 5.65 5.65 5.95 5.85 14.4-.2 8.25-5.85 14.2-5.8 5.5-13.75 5.8h39.6z"/><path fill="#C4D3D4" d="M90.05 289.5q11.6-11.75 11.75-28.3H62.2q7.95-.3 13.75-5.8 5.65-5.95 5.85-14.2-.2-8.45-5.85-14.4-5.8-5.5-13.75-5.65h-.6Q45.05 221 33 232.75q-11.8 11.8-11.8 28.45 0 16.55 11.8 28.3 12.05 11.8 28.6 11.8h1.05q15.9-.45 27.4-11.8z"/></g><path id="c" stroke="#000" stroke-linejoin="round" stroke-linecap="round" fill="none" d="M584.3 261.2q0 16.55-11.8 28.3-11.8 11.8-28.3 11.8H61.6q-16.55 0-28.6-11.8-11.8-11.75-11.8-28.3 0-16.65 11.8-28.45 12.05-11.75 28.6-11.6h40.2m0 40.05q-.15 16.55-11.75 28.3-11.5 11.35-27.4 11.8m-.45-80.15q7.95.15 13.75 5.65 5.65 5.95 5.85 14.4-.2 8.25-5.85 14.2-5.8 5.5-13.75 5.8h39.6"/></defs><use xlink:href="#a" transform="translate(-20.3 -220.3)"/><g transform="translate(-20.3 -220.3)"><use xlink:href="#b"/><use xlink:href="#c"/></g></svg>

<svg xmlns="http://www.w3.org/2000/svg" version="1.1" xmlns:xlink="http://www.w3.org/1999/xlink" preserveAspectRatio="none" x="0px" y="0px" width="564px" height="81px" viewBox="0 0 564 81">
<defs>
<g id="Layer0_0_MEMBER_0_FILL">
<path fill="#FFFFFF" stroke="none" d="
M 584.3 262
Q 584.3 261.55 584.3 261.2
L 583.8 222.2 101.8 222.2 101.8 261.2
Q 101.65 277.75 90.05 289.5 78.55 300.85 62.65 301.3
L 544.2 301.3
Q 560.7 301.3 572.5 289.5 583.95 278.05 584.3 262 Z"/>
</g>

<g id="Layer0_0_MEMBER_1_FILL">
<path fill="#FFFFFF" stroke="none" d="
M 101.8 261.2
L 101.8 221.15 62.2 221.15
Q 70.15 221.3 75.95 226.8 81.6 232.75 81.8 241.2 81.6 249.45 75.95 255.4 70.15 260.9 62.2 261.2
L 101.8 261.2 Z"/>

<path fill="#C4D3D4" stroke="none" d="
M 90.05 289.5
Q 101.65 277.75 101.8 261.2
L 62.2 261.2
Q 70.15 260.9 75.95 255.4 81.6 249.45 81.8 241.2 81.6 232.75 75.95 226.8 70.15 221.3 62.2 221.15 61.9 221.15 61.6 221.15 45.05 221 33 232.75 21.2 244.55 21.2 261.2 21.2 277.75 33 289.5 45.05 301.3 61.6 301.3 62.2 301.3 62.65 301.3 78.55 300.85 90.05 289.5 Z"/>
</g>

<path id="Layer0_0_MEMBER_1_1_STROKES" stroke="#000000" stroke-width="1" stroke-linejoin="round" stroke-linecap="round" fill="none" d="
M 584.3 261.2
Q 584.3 277.75 572.5 289.5 560.7 301.3 544.2 301.3
L 62.65 301.3
Q 62.2 301.3 61.6 301.3 45.05 301.3 33 289.5 21.2 277.75 21.2 261.2 21.2 244.55 33 232.75 45.05 221 61.6 221.15 61.9 221.15 62.2 221.15
L 101.8 221.15
M 101.8 261.2
Q 101.65 277.75 90.05 289.5 78.55 300.85 62.65 301.3
M 62.2 221.15
Q 70.15 221.3 75.95 226.8 81.6 232.75 81.8 241.2 81.6 249.45 75.95 255.4 70.15 260.9 62.2 261.2
L 101.8 261.2"/>
</defs>

<g transform="matrix( 1, 0, 0, 1, -20.3,-220.3) ">
<use xlink:href="#Layer0_0_MEMBER_0_FILL"/>
</g>

<g transform="matrix( 1, 0, 0, 1, -20.3,-220.3) ">
<use xlink:href="#Layer0_0_MEMBER_1_FILL"/>

<use xlink:href="#Layer0_0_MEMBER_1_1_STROKES"/>
</g>
</svg>
